svgs/duotone/album-collection-circle-user.svg

<svg xmlns="http://www.w3.org/2000/svg" viewBox="0 0 640 512"><!--! Font Awesome Pro 6.4.0 by @fontawesome - https://fontawesome.com License - https://fontawesome.com/license (Commercial License) Copyright 2023 Fonticons, Inc. --><defs><style>.fa-secondary{opacity:.4}</style></defs><path class="fa-primary" d="M496 512a144 144 0 1 0 0-288 144 144 0 1 0 0 288zm0-32c-30.2 0-57.5-11.9-77.7-31.3c6.2-19 24-32.7 45.1-32.7h65.2c21 0 38.9 13.7 45.1 32.7C553.5 468.1 526.2 480 496 480zm0-192a48 48 0 1 1 0 96 48 48 0 1 1 0-96z"/><path class="fa-secondary" d="M56 0H456c13.3 0 24 10.7 24 24s-10.7 24-24 24H56C42.7 48 32 37.3 32 24S42.7 0 56 0zM12 176.2C21.1 165.9 34.2 160 48 160H464c13.8 0 26.9 5.9 36 16.2c4.2 4.8 7.4 10.3 9.4 16.3c-4.4-.3-8.9-.5-13.4-.5c-46.9 0-89.5 18.3-121 48.2C342.9 220.1 301.4 208 256 208C154.4 208 72 268.9 72 344s82.4 136 184 136c33.2 0 64.4-6.5 91.3-17.9c12.4 19.6 28.6 36.6 47.5 49.9H80c-24.2 0-44.6-18-47.6-42L.4 214c-1.7-13.7 2.5-27.4 11.6-37.7zM288 352c0 13.3-14.3 24-32 24s-32-10.7-32-24s14.3-24 32-24s32 10.7 32 24zM16 104c0-13.3 10.7-24 24-24H472c13.3 0 24 10.7 24 24s-10.7 24-24 24H40c-13.3 0-24-10.7-24-24z"/></svg>

<svg xmlns="http://www.w3.org/2000/svg" viewBox="0 0 640 512"><!--! Font Awesome Pro 6.3.0 by @fontawesome - https://fontawesome.com License - https://fontawesome.com/license (Commercial License) Copyright 2023 Fonticons, Inc. --><defs><style>.fa-secondary{opacity:.4}</style></defs><path class="fa-primary" d="M352 368C352 288.5 416.5 224 496 224C575.5 224 640 288.5 640 368C640 447.5 575.5 512 496 512C416.5 512 352 447.5 352 368zM496 480C526.2 480 553.5 468.1 573.7 448.7C567.5 429.7 549.6 416 528.6 416H463.4C442.4 416 424.5 429.7 418.3 448.7C438.5 468.1 465.8 480 496 480V480zM496 384C522.5 384 544 362.5 544 336C544 309.5 522.5 288 496 288C469.5 288 448 309.5 448 336C448 362.5 469.5 384 496 384z"/><path class="fa-secondary" d="M456 0C469.3 0 480 10.75 480 24C480 37.25 469.3 48 456 48H56C42.75 48 32 37.25 32 24C32 10.75 42.75 0 56 0H456zM12.02 176.2C21.13 165.9 34.23 160 48 160H464C477.8 160 490.9 165.9 499.1 176.2C504.2 181 507.4 186.6 509.4 192.5C504.1 192.2 500.5 192 496 192C449.1 192 406.5 210.3 374.1 240.2C342.9 220.1 301.4 208 256 208C154.4 208 72 268.9 72 344C72 419.1 154.4 480 256 480C289.2 480 320.4 473.5 347.3 462.1C359.7 481.7 375.9 498.7 394.8 512H80C55.79 512 35.37 493.1 32.37 469.1L.3709 213.1C-1.337 200.3 2.904 186.6 12.02 176.2L12.02 176.2zM288 352C288 365.3 273.7 376 256 376C238.3 376 224 365.3 224 352C224 338.7 238.3 328 256 328C273.7 328 288 338.7 288 352zM16 104C16 90.75 26.75 80 40 80H472C485.3 80 496 90.75 496 104C496 117.3 485.3 128 472 128H40C26.75 128 16 117.3 16 104V104z"/></svg>
